X: 24482
T: Lucy Campbell
R: reel
M: 4/4
K: Dmajor
dB|AD~D2 [DA,]3B|ADFA BE (3EEE|ADFA dfec|dBAF AD (3DDD|
AD~D2 [DA,]3B|ADFA BE (3EEE|ADFA dfec|dBAF AD (3DDD||
dBAB defe|d2cd B2 (3EEE|dBAB defe|dBAF A2 (3AAA|
dBAB defe|dB (3BBB gB (3BBB|dBAB defe|dBAF A2 (3AAA||
faaf defg|a2fa bg eg|faaf defe|dBAF A2 (3AAA|
faaf defg|a2fa bgef|g3e f2fe|dBAF A2 (3AAA||
d~f3 dfef|dfef afef|df{a}fe ~f3e|dBAF A2 (3AAA|
d~f3 dfef|dfef afef|g3e f2fe|dBAF A2||

